gameandwatch/_inc/art.svg

<svg xmlns="http://www.w3.org/2000/svg"><g fill="#1e1e1e"><path d="m215.181 244.732c0-8.358 6.773-15.132 15.131-15.134 8.356.002 15.13 6.776 15.13 15.134 0 8.355-6.774 15.128-15.13 15.131-8.358-.003-15.131-6.776-15.131-15.131zm1.395 0c.014 7.584 6.151 13.718 13.736 13.733 7.584-.014 13.72-6.149 13.734-13.733-.014-7.587-6.151-13.722-13.734-13.736-7.586.014-13.722 6.149-13.736 13.736z" transform="matrix(.965926 -.258819 .258819 .965926 -55.493218 67.947955)"/><path d="m415.749 190.989c.002-8.36 6.774-15.132 15.133-15.134 8.355.002 15.129 6.774 15.131 15.134-.002 8.355-6.776 15.128-15.131 15.131-8.358-.003-15.131-6.776-15.133-15.131zm1.399 0c.012 7.584 6.147 13.719 13.734 13.733 7.583-.013 13.719-6.149 13.732-13.733-.013-7.587-6.149-13.722-13.732-13.735-7.587.013-13.721 6.148-13.734 13.735z" transform="matrix(.965926 -.258819 .258819 .965926 -34.74928 118.027908)"/><path d="m288.038 256.91c0-2.315 1.875-4.191 4.19-4.191 2.313 0 4.189 1.876 4.19 4.191-.001 2.313-1.877 4.188-4.19 4.189-2.315-.001-4.19-1.876-4.19-4.189zm1.397 0c.003 1.54 1.251 2.788 2.793 2.792 1.542-.006 2.79-1.252 2.793-2.792-.003-1.545-1.251-2.792-2.793-2.794-1.542.002-2.79 1.249-2.793 2.794z" transform="matrix(.965926 -.258819 .258819 .965926 -56.535489 84.388086)"/><path d="m338.091 252.181v-.7-.698h6.984c3.919-.007 7.092-3.181 7.098-7.099-.006-3.922-3.179-7.095-7.098-7.102h-6.984c-3.92.007-7.093 3.18-7.1 7.102.007 3.918 3.18 7.092 7.1 7.099v.698.7c-4.693-.001-8.496-3.805-8.496-8.496 0-4.695 3.803-8.499 8.496-8.499h6.984c4.693 0 8.495 3.804 8.497 8.499-.002 4.691-3.804 8.495-8.497 8.496z" transform="matrix(.965926 -.258819 .258819 .965926 -51.430746 96.711592)"/><path d="m366.535 244.56v-.7-.698h6.985c3.92-.008 7.091-3.181 7.099-7.099-.008-3.922-3.179-7.095-7.099-7.102h-6.985c-3.92.007-7.093 3.18-7.099 7.102.006 3.918 3.179 7.091 7.099 7.099v.698.7c-4.694-.001-8.495-3.806-8.497-8.496.002-4.695 3.803-8.499 8.497-8.499h6.985c4.692 0 8.496 3.804 8.496 8.499 0 4.69-3.804 8.495-8.496 8.496z" transform="matrix(.965926 -.258819 .258819 .965926 -48.489093 103.813627)"/><path d="m395.316 236.848v-.7-.699h6.985c3.918-.007 7.091-3.18 7.097-7.098-.006-3.923-3.179-7.096-7.097-7.102h-6.985c-3.922.006-7.093 3.179-7.101 7.102.008 3.918 3.179 7.091 7.101 7.098v.699.7c-4.695-.001-8.497-3.806-8.497-8.497 0-4.694 3.802-8.498 8.497-8.498h6.985c4.692 0 8.494 3.804 8.495 8.498-.001 4.691-3.803 8.496-8.495 8.497z" transform="matrix(.965926 -.258819 .258819 .965926 -45.5124 110.999759)"/><path d="m257.158 216.515c-3.857 0-6.982-3.126-6.984-6.983v-79.148c.002-3.857 3.127-6.982 6.984-6.983l120.585.001c3.856 0 6.982 3.125 6.984 6.982v79.149h-.002c0 3.857-3.126 6.983-6.982 6.984zm-5.586-86.131v79.149c.006 3.084 2.502 5.581 5.587 5.586h120.585c3.083-.005 5.579-2.501 5.586-5.586v-79.149c-.007-3.084-2.502-5.58-5.586-5.586h-120.586c-3.084.006-5.581 2.5-5.586 5.586z" transform="matrix(.965926 -.258819 .258819 .965926 -33.171755 87.953417)"/><path d="m240.887 236.21c-1.929 0-3.492-1.562-3.492-3.49v-123.611c0-1.929 1.562-3.491 3.492-3.492h153.638c1.929.001 3.492 1.564 3.492 3.492v123.611c0 1.928-1.562 3.49-3.492 3.492zm-2.096-127.101v123.611c.003 1.156.939 2.092 2.096 2.093h153.638c1.156-.001 2.092-.937 2.095-2.093v-123.611c-.003-1.156-.939-2.093-2.095-2.094h-153.638c-1.157.001-2.093.938-2.096 2.094z" transform="matrix(.965926 -.258819 .258819 .965926 -33.410348 88.052101)"/><path d="m188.592 263.919c-.772 0-1.397-.625-1.397-1.396v-165.046c0-.772.625-1.397 1.397-1.397h262.816c.771 0 1.396.624 1.397 1.397v165.046h-.001c0 .772-.626 1.396-1.396 1.397zm0-166.442v165.046h262.815l.001-165.046-262.816-.002z" transform="matrix(.965926 -.258819 .258819 .965926 -35.683683 88.955419)"/><path d="m192.721 168.658c-2.313 0-4.188-1.875-4.188-4.19v-21.649c0-2.315 1.875-4.189 4.188-4.189h26.305c2.315 0 4.191 1.874 4.191 4.189v21.649c0 2.315-1.876 4.19-4.191 4.19zm-2.793-25.839v21.649c.003 1.542 1.252 2.791 2.793 2.794h26.305c1.543-.003 2.791-1.252 2.794-2.794v-21.649c-.003-1.542-1.251-2.791-2.794-2.794h-26.305c-1.541.003-2.79 1.252-2.793 2.794z" transform="matrix(.965926 -.258819 .258819 .965926 -32.750953 58.51961)"/></g></svg>

<?xml version="1.0" encoding="utf-8"?>
<svg version="1.1" xmlns="http://www.w3.org/2000/svg">
  <path d="M 215.181 244.732 C 215.181 236.374 221.954 229.6 230.312 229.598 L 230.312 229.598 C 238.668 229.6 245.442 236.374 245.442 244.732 L 245.442 244.732 C 245.442 253.087 238.668 259.86 230.312 259.863 L 230.312 259.863 C 221.954 259.86 215.181 253.087 215.181 244.732 L 215.181 244.732 Z M 216.576 244.732 C 216.59 252.316 222.727 258.45 230.312 258.465 L 230.312 258.465 C 237.896 258.451 244.032 252.316 244.046 244.732 L 244.046 244.732 C 244.032 237.145 237.895 231.01 230.312 230.996 L 230.312 230.996 C 222.726 231.01 216.59 237.145 216.576 244.732 L 216.576 244.732 Z" style="fill: rgb(30, 30, 30);" transform="matrix(0.965926, -0.258819, 0.258819, 0.965926, -55.493218, 67.947955)"/>
  <path d="M 415.749 190.989 C 415.751 182.629 422.523 175.857 430.882 175.855 L 430.882 175.855 C 439.237 175.857 446.011 182.629 446.013 190.989 L 446.013 190.989 C 446.011 199.344 439.237 206.117 430.882 206.12 L 430.882 206.12 C 422.524 206.117 415.751 199.344 415.749 190.989 L 415.749 190.989 Z M 417.148 190.989 C 417.16 198.573 423.295 204.708 430.882 204.722 L 430.882 204.722 C 438.465 204.709 444.601 198.573 444.614 190.989 L 444.614 190.989 C 444.601 183.402 438.465 177.267 430.882 177.254 L 430.882 177.254 C 423.295 177.267 417.161 183.402 417.148 190.989 L 417.148 190.989 Z" style="fill: rgb(30, 30, 30);" transform="matrix(0.965926, -0.258819, 0.258819, 0.965926, -34.74928, 118.027908)"/>
  <path d="M 288.038 256.91 C 288.038 254.595 289.913 252.719 292.228 252.719 L 292.228 252.719 C 294.541 252.719 296.417 254.595 296.418 256.91 L 296.418 256.91 C 296.417 259.223 294.541 261.098 292.228 261.099 L 292.228 261.099 C 289.913 261.098 288.038 259.223 288.038 256.91 L 288.038 256.91 Z M 289.435 256.91 C 289.438 258.45 290.686 259.698 292.228 259.702 L 292.228 259.702 C 293.77 259.696 295.018 258.45 295.021 256.91 L 295.021 256.91 C 295.018 255.365 293.77 254.118 292.228 254.116 L 292.228 254.116 C 290.686 254.118 289.438 255.365 289.435 256.91 L 289.435 256.91 Z" style="fill: rgb(30, 30, 30);" transform="matrix(0.965926, -0.258819, 0.258819, 0.965926, -56.535489, 84.388086)"/>
  <path d="M 338.091 252.181 L 338.091 251.481 L 338.091 250.783 L 345.075 250.783 C 348.994 250.776 352.167 247.602 352.173 243.684 L 352.173 243.684 C 352.167 239.762 348.994 236.589 345.075 236.582 L 345.075 236.582 L 338.091 236.582 C 334.171 236.589 330.998 239.762 330.991 243.684 L 330.991 243.684 C 330.998 247.602 334.171 250.776 338.091 250.783 L 338.091 250.783 L 338.091 251.481 L 338.091 252.181 C 333.398 252.18 329.595 248.376 329.595 243.685 L 329.595 243.685 C 329.595 238.99 333.398 235.186 338.091 235.186 L 338.091 235.186 L 345.075 235.186 C 349.768 235.186 353.57 238.99 353.572 243.685 L 353.572 243.685 C 353.57 248.376 349.768 252.18 345.075 252.181 L 345.075 252.181 L 338.091 252.181 L 338.091 252.181 Z" style="fill: rgb(30, 30, 30);" transform="matrix(0.965926, -0.258819, 0.258819, 0.965926, -51.430746, 96.711592)"/>
  <path d="M 366.535 244.56 L 366.535 243.86 L 366.535 243.162 L 373.52 243.162 C 377.44 243.154 380.611 239.981 380.619 236.063 L 380.619 236.063 C 380.611 232.141 377.44 228.968 373.52 228.961 L 373.52 228.961 L 366.535 228.961 C 362.615 228.968 359.442 232.141 359.436 236.063 L 359.436 236.063 C 359.442 239.981 362.615 243.154 366.535 243.162 L 366.535 243.162 L 366.535 243.86 L 366.535 244.56 C 361.841 244.559 358.04 240.754 358.038 236.064 L 358.038 236.064 C 358.04 231.369 361.841 227.565 366.535 227.565 L 366.535 227.565 L 373.52 227.565 C 378.212 227.565 382.016 231.369 382.016 236.064 L 382.016 236.064 C 382.016 240.754 378.212 244.559 373.52 244.56 L 373.52 244.56 L 366.535 244.56 L 366.535 244.56 Z" style="fill: rgb(30, 30, 30);" transform="matrix(0.965926, -0.258819, 0.258819, 0.965926, -48.489093, 103.813627)"/>
  <path d="M 395.316 236.848 L 395.316 236.148 L 395.316 235.449 L 402.301 235.449 C 406.219 235.442 409.392 232.269 409.398 228.351 L 409.398 228.351 C 409.392 224.428 406.219 221.255 402.301 221.249 L 402.301 221.249 L 395.316 221.249 C 391.394 221.255 388.223 224.428 388.215 228.351 L 388.215 228.351 C 388.223 232.269 391.394 235.442 395.316 235.449 L 395.316 235.449 L 395.316 236.148 L 395.316 236.848 C 390.621 236.847 386.819 233.042 386.819 228.351 L 386.819 228.351 C 386.819 223.657 390.621 219.853 395.316 219.853 L 395.316 219.853 L 402.301 219.853 C 406.993 219.853 410.795 223.657 410.796 228.351 L 410.796 228.351 C 410.795 233.042 406.993 236.847 402.301 236.848 L 402.301 236.848 L 395.316 236.848 L 395.316 236.848 Z" style="fill: rgb(30, 30, 30);" transform="matrix(0.965926, -0.258819, 0.258819, 0.965926, -45.5124, 110.999759)"/>
  <path d="M 257.158 216.515 C 253.301 216.515 250.176 213.389 250.174 209.532 L 250.174 209.532 L 250.174 130.384 C 250.176 126.527 253.301 123.402 257.158 123.401 L 257.158 123.401 L 377.743 123.402 C 381.599 123.402 384.725 126.527 384.727 130.384 L 384.727 130.384 L 384.727 209.533 L 384.725 209.533 C 384.725 213.39 381.599 216.516 377.743 216.517 L 377.743 216.517 L 257.158 216.515 L 257.158 216.515 Z M 251.572 130.384 L 251.572 209.533 C 251.578 212.617 254.074 215.114 257.159 215.119 L 257.159 215.119 L 377.744 215.119 C 380.827 215.114 383.323 212.618 383.33 209.533 L 383.33 209.533 L 383.33 130.384 C 383.323 127.3 380.828 124.804 377.744 124.798 L 377.744 124.798 L 257.158 124.798 C 254.074 124.804 251.577 127.298 251.572 130.384 L 251.572 130.384 Z" style="fill: rgb(30, 30, 30);" transform="matrix(0.965926, -0.258819, 0.258819, 0.965926, -33.171755, 87.953417)"/>
  <path d="M 240.887 236.21 C 238.958 236.21 237.395 234.648 237.395 232.72 L 237.395 232.72 L 237.395 109.109 C 237.395 107.18 238.957 105.618 240.887 105.617 L 240.887 105.617 L 394.525 105.617 C 396.454 105.618 398.017 107.181 398.017 109.109 L 398.017 109.109 L 398.017 232.72 C 398.017 234.648 396.455 236.21 394.525 236.212 L 394.525 236.212 L 240.887 236.21 L 240.887 236.21 Z M 238.791 109.109 L 238.791 232.72 C 238.794 233.876 239.73 234.812 240.887 234.813 L 240.887 234.813 L 394.525 234.813 C 395.681 234.812 396.617 233.876 396.62 232.72 L 396.62 232.72 L 396.62 109.109 C 396.617 107.953 395.681 107.016 394.525 107.015 L 394.525 107.015 L 240.887 107.015 C 239.73 107.016 238.794 107.953 238.791 109.109 L 238.791 109.109 Z" style="fill: rgb(30, 30, 30);" transform="matrix(0.965926, -0.258819, 0.258819, 0.965926, -33.410348, 88.052101)"/>
  <path d="M 188.592 263.919 C 187.82 263.919 187.195 263.294 187.195 262.523 L 187.195 262.523 L 187.195 97.477 C 187.195 96.705 187.82 96.08 188.592 96.08 L 188.592 96.08 L 451.408 96.08 C 452.179 96.08 452.804 96.704 452.805 97.477 L 452.805 97.477 L 452.805 262.523 L 452.804 262.523 C 452.804 263.295 452.178 263.919 451.408 263.92 L 451.408 263.92 L 188.592 263.919 L 188.592 263.919 Z M 188.592 97.477 L 188.592 262.523 L 451.407 262.523 L 451.408 97.477 C 451.408 97.477 451.408 97.476 451.408 97.477 L 451.408 97.477 L 188.592 97.475 L 188.592 97.477 L 188.592 97.477 Z" style="fill: rgb(30, 30, 30);" transform="matrix(0.965926, -0.258819, 0.258819, 0.965926, -35.683683, 88.955419)"/>
  <path d="M 192.721 168.658 C 190.408 168.658 188.533 166.783 188.533 164.468 L 188.533 164.468 L 188.533 142.819 C 188.533 140.504 190.408 138.63 192.721 138.63 L 192.721 138.63 L 219.026 138.63 C 221.341 138.63 223.217 140.504 223.217 142.819 L 223.217 142.819 L 223.217 164.468 C 223.217 166.783 221.341 168.658 219.026 168.658 L 219.026 168.658 L 192.721 168.658 L 192.721 168.658 Z M 189.928 142.819 L 189.928 164.468 C 189.931 166.01 191.18 167.259 192.721 167.262 L 192.721 167.262 L 219.026 167.262 C 220.569 167.259 221.817 166.01 221.82 164.468 L 221.82 164.468 L 221.82 164.468 L 221.82 142.819 C 221.817 141.277 220.569 140.028 219.026 140.025 L 219.026 140.025 L 192.721 140.025 C 191.18 140.028 189.931 141.277 189.928 142.819 L 189.928 142.819 Z" style="fill: rgb(30, 30, 30);" transform="matrix(0.965926, -0.258819, 0.258819, 0.965926, -32.750953, 58.51961)"/>
</svg>
